src/assets/images/dashboard_icons/grey-icons/Project.svg

<svg xmlns="http://www.w3.org/2000/svg" width="23.96" height="23.96" viewBox="0 0 23.96 23.96">
  <g id="Projects" transform="translate(-937.142 -437)">
    <path id="Path" d="M6.771,0H2.6A2.607,2.607,0,0,0,0,2.6V6.771a2.607,2.607,0,0,0,2.6,2.6H6.771a2.607,2.607,0,0,0,2.6-2.6V2.6A2.607,2.607,0,0,0,6.771,0Z" transform="translate(944.434 437)" fill="#a0a0a0"/>
    <path id="Path-2" data-name="Path" d="M3.854,0h-2.5A1.356,1.356,0,0,0,0,1.354v2.5A1.356,1.356,0,0,0,1.354,5.209h2.5A1.356,1.356,0,0,0,5.209,3.854v-2.5A1.356,1.356,0,0,0,3.854,0Z" transform="translate(946.517 455.751)" fill="#a0a0a0"/>
    <path id="Path-3" data-name="Path" d="M3.854,0h-2.5A1.356,1.356,0,0,0,0,1.354v2.5A1.356,1.356,0,0,0,1.354,5.209h2.5A1.356,1.356,0,0,0,5.209,3.854v-2.5A1.356,1.356,0,0,0,3.854,0Z" transform="translate(955.893 455.751)" fill="#a0a0a0"/>
    <path id="Path-4" data-name="Path" d="M3.854,0h-2.5A1.356,1.356,0,0,0,0,1.354v2.5A1.356,1.356,0,0,0,1.354,5.209h2.5A1.356,1.356,0,0,0,5.209,3.854v-2.5A1.356,1.356,0,0,0,3.854,0Z" transform="translate(937.142 455.751)" fill="#a0a0a0"/>
    <path id="Path-5" data-name="Path" d="M16.147,3.125h-5.73V.521a.521.521,0,0,0-1.042,0v2.6H3.646A3.65,3.65,0,0,0,0,6.771a.521.521,0,0,0,1.042,0,2.607,2.607,0,0,1,2.6-2.6h5.73v2.6a.521.521,0,0,0,1.042,0v-2.6h5.73a2.607,2.607,0,0,1,2.6,2.6.521.521,0,0,0,1.042,0A3.65,3.65,0,0,0,16.147,3.125Z" transform="translate(939.225 447.417)" fill="#a0a0a0"/>
  </g>
</svg>

<svg xmlns="http://www.w3.org/2000/svg" width="24" height="24" viewBox="0 0 24 24">
  <g id="Project" transform="translate(-937.142 -1332)">
    <path id="Path" d="M6.783,0H2.609A2.612,2.612,0,0,0,0,2.609V6.783A2.612,2.612,0,0,0,2.609,9.391H6.783A2.612,2.612,0,0,0,9.391,6.783V2.609A2.612,2.612,0,0,0,6.783,0Z" transform="translate(944.446 1332)" fill="#a0a0a0"/>
    <path id="Path-2" data-name="Path" d="M3.861,0h-2.5A1.358,1.358,0,0,0,0,1.357v2.5A1.358,1.358,0,0,0,1.357,5.217h2.5A1.358,1.358,0,0,0,5.217,3.861v-2.5A1.358,1.358,0,0,0,3.861,0Z" transform="translate(946.533 1350.783)" fill="#a0a0a0"/>
    <path id="Path-3" data-name="Path" d="M3.861,0h-2.5A1.358,1.358,0,0,0,0,1.357v2.5A1.358,1.358,0,0,0,1.357,5.217h2.5A1.358,1.358,0,0,0,5.217,3.861v-2.5A1.358,1.358,0,0,0,3.861,0Z" transform="translate(955.924 1350.783)" fill="#a0a0a0"/>
    <path id="Path-4" data-name="Path" d="M3.861,0h-2.5A1.358,1.358,0,0,0,0,1.357v2.5A1.358,1.358,0,0,0,1.357,5.217h2.5A1.358,1.358,0,0,0,5.217,3.861v-2.5A1.358,1.358,0,0,0,3.861,0Z" transform="translate(937.142 1350.783)" fill="#a0a0a0"/>
    <path id="Path-5" data-name="Path" d="M16.174,3.13H10.435V.522a.522.522,0,0,0-1.044,0V3.13H3.652A3.656,3.656,0,0,0,0,6.783a.522.522,0,0,0,1.044,0A2.612,2.612,0,0,1,3.652,4.174H9.391V6.783a.522.522,0,1,0,1.044,0V4.174h5.739a2.612,2.612,0,0,1,2.609,2.609.522.522,0,1,0,1.044,0A3.656,3.656,0,0,0,16.174,3.13Z" transform="translate(939.229 1342.435)" fill="#a0a0a0"/>
  </g>
</svg>
